_includes/icons/color-tree-planting.svg

<svg fill="#666" height="50" viewBox="0 0 48 48" width="50" xmlns="http://www.w3.org/2000/svg"><path d="m32.4 29.1-13.2 7.8s3.1 4 3.1 4l12.6-7.6c1.2-.7 1.5-2.2.8-3.3-.6-1.2-2.1-1.6-3.3-.9" fill="#e39d36"/><path d="m32.7 13.2c-1.6-4.7-8.9-7.5-10.7-8.2.8 2.9-4.8 8.8-2.5 13.2 1.6 3.1 4.6 4 8 .8 3.8.9 6.4-2.5 5.2-5.8z" fill="#689f38"/><path d="m27 26c-.6 0-1-.5-1-1.1 0-.1.5-7.9-2.9-11.7-.4-.4-.3-1 .1-1.4s1-.3 1.4.1c3.9 4.5 3.4 12.8 3.4 13.2 0 .5-.5.9-1 .9z" fill="#8bc34a"/><path d="m19.6 18.2c-2.3-4.4 3.2-10.3 2.4-13.2 1.5 1.7 3.5 5.5 5.5 14-3.4 3.2-6.3 2.3-7.9-.8z" fill="#8bc34a"/><g fill="#795548"><path d="m27 27c0 1.7-1.3 3-3 3s-3-1.3-3-3 1.3-3 3-3 3 1.3 3 3z"/><path d="m33 32c0 1.7-1.3 3-3 3s-3-1.3-3-3 1.3-3 3-3 3 1.3 3 3z"/><path d="m30 29c0-1.7-1.6-3-3.5-3s-3.5 1.3-3.5 3 1.6 3 3.5 3 3.5-1.3 3.5-3z"/><path d="m23 28c0 1.7-1.3 3-3 3s-3-1.3-3-3 1.3-3 3-3 3 1.3 3 3z"/><path d="m31 26.5c0 1.4-1.1 2.5-2.5 2.5s-2.5-1.1-2.5-2.5 1.1-2.5 2.5-2.5 2.5 1.1 2.5 2.5z"/><path d="m36 30c0 1.1-.9 2-2 2s-2-.9-2-2 .9-2 2-2 2 .9 2 2z"/><path d="m34 27.5c0 1.4-1.1 2.5-2.5 2.5s-2.5-1.1-2.5-2.5 1.1-2.5 2.5-2.5 2.5 1.1 2.5 2.5z"/></g><path d="m38.9 30.4-12.4 7.3-5.9-3.4 2.9 1.6c1.3.7 2.9.5 3.9-.6 1.3-1.5.9-3.8-.8-4.7l-12.4-6.8c-1.1-.6-2.5-.6-3.7 0l-5.5 3.3v.1 10.7l4-2.6 15.1 8.2c1.2.6 2.6.6 3.8-.1l13.8-8.3c1.3-.8 1.7-2.4.9-3.7-.7-1.3-2.4-1.7-3.7-1" fill="#ffb74d"/><path d="m27.5 35.4c-.7.9-1.9 1.2-3 1l-.2.1 2.2 1.3 12.4-7.3c.1-.1.2-.1.3-.1-.7-1.1-2.1-1.4-3.2-.7l-7.8 4.6c-.2.3-.4.7-.7 1.1z" fill="#eda740"/><path d="m26.5 37.8-1.3-.9-10.7-6 8 6.6c1.2.9 2.7 1 4 .3" fill="#eda740"/><path d="m24.4 35.2c-.9-.5-.6-1.3-.1-2.2s.9-1.6 1.8-1.1 1.3 1.6.8 2.5c-.4.9-1.5 1.2-2.5.8" fill="#ffcc80"/></svg>

<svg xmlns="http://www.w3.org/2000/svg" viewBox="0 0 48 48" width="50" height="50" fill="#666"><path d="M32.4,29.1l-13.2,7.8c0,0,3.1,4,3.1,4l12.6-7.6c1.2-0.7,1.5-2.2,0.8-3.3 C35.1,28.8,33.6,28.4,32.4,29.1" fill="#e39d36"/><path d="M32.7,13.2C31.1,8.5,23.8,5.7,22,5c0.8,2.9-4.8,8.8-2.5,13.2c1.6,3.1,4.6,4,8,0.8 C31.3,19.9,33.9,16.5,32.7,13.2z" fill="#689f38"/><path d="M27,26C27,26,27,26,27,26c-0.6,0-1-0.5-1-1.1c0-0.1,0.5-7.9-2.9-11.7c-0.4-0.4-0.3-1,0.1-1.4 c0.4-0.4,1-0.3,1.4,0.1c3.9,4.5,3.4,12.8,3.4,13.2C28,25.6,27.5,26,27,26z" fill="#8bc34a"/><path d="M19.6,18.2C17.3,13.8,22.8,7.9,22,5c1.5,1.7,3.5,5.5,5.5,14c0,0,0,0,0,0 C24.1,22.2,21.2,21.3,19.6,18.2z" fill="#8bc34a"/><path d="M27,27c0,1.7-1.3,3-3,3s-3-1.3-3-3s1.3-3,3-3S27,25.3,27,27z" fill="#795548"/><path d="M33,32c0,1.7-1.3,3-3,3s-3-1.3-3-3s1.3-3,3-3S33,30.3,33,32z" fill="#795548"/><path d="M30,29c0-1.7-1.6-3-3.5-3S23,27.3,23,29s1.6,3,3.5,3S30,30.7,30,29z" fill="#795548"/><path d="M23,28c0,1.7-1.3,3-3,3s-3-1.3-3-3s1.3-3,3-3S23,26.3,23,28z" fill="#795548"/><path d="M31,26.5c0,1.4-1.1,2.5-2.5,2.5S26,27.9,26,26.5s1.1-2.5,2.5-2.5S31,25.1,31,26.5z" fill="#795548"/><path d="M36,30c0,1.1-0.9,2-2,2s-2-0.9-2-2s0.9-2,2-2S36,28.9,36,30z" fill="#795548"/><path d="M34,27.5c0,1.4-1.1,2.5-2.5,2.5S29,28.9,29,27.5s1.1-2.5,2.5-2.5S34,26.1,34,27.5z" fill="#795548"/><path d="M38.9,30.4l-12.4,7.3c0,0,0,0,0,0l-5.9-3.4l2.9,1.6c1.3,0.7,2.9,0.5,3.9-0.6 c1.3-1.5,0.9-3.8-0.8-4.7l-12.4-6.8c-1.1-0.6-2.5-0.6-3.7,0L5,27.1c0,0,0,0,0,0.1v10.7l4-2.6l15.1,8.2c1.2,0.6,2.6,0.6,3.8-0.1 l13.8-8.3c1.3-0.8,1.7-2.4,0.9-3.7C41.9,30.1,40.2,29.7,38.9,30.4" fill="#ffb74d"/><path d="M27.5,35.4c-0.7,0.9-1.9,1.2-3,1l-0.2,0.1l2.2,1.3l12.4-7.3c0.1-0.1,0.2-0.1,0.3-0.1 c-0.7-1.1-2.1-1.4-3.2-0.7l-7.8,4.6C28,34.6,27.8,35,27.5,35.4z" fill="#eda740"/><path d="M26.5,37.8L26.5,37.8l-1.3-0.9l-10.7-6l8,6.6C23.7,38.4,25.2,38.5,26.5,37.8" fill="#eda740"/><path d="M24.4,35.2c-0.9-0.5-0.6-1.3-0.1-2.2c0.5-0.9,0.9-1.6,1.8-1.1s1.3,1.6,0.8,2.5 C26.5,35.3,25.4,35.6,24.4,35.2" fill="#ffcc80"/></svg>
